X:1
T:Title
L:1/8
M:3/4
I:linebreak $
K:G
V:1 treble nm="Voice"
V:1
"Em" B3 B B2 | G2 E2 EG | B3 B B2 | G2 E2 EG |"D" F4 FG | A2 G2 F2 |"Em" E3 F GA | B4 EG | %8
"Em" B3 B B2 | G2 E2 G2 | B3 B B2 | G2 E2 G2 |"D" F4 FG | A2 G2 F2 |"Em" E3 F GF |1 E4 EG :|2 %16
 E2 G2 B2 |:"Em" e3 e e2 | e2 d2 c2 | B3 B B2 | B2 A2 G2 |"D" F4 FG | A2 G2 F2 |"Em" E3 F GA | %24
 B4 GB |"Em" e3 e e2 | e2 d2 c2 | B3 A Bc | B2 A2 G2 |"D" F4 FG | A2 G2 F2 |"Em" E3 F GF |1 %32
 E2 G2 B2 :|2 E4 EG |] %34
